X:2802505
T:Gr\/onl\aenderpolka
T:Polka from Greenland
S:Thomas M\/oller, harmonica and Anders J. \/Orts, guitar,
S:https://youtu.be/nkxMGGH71Ss, May 16, 2009.
H:The video notes say: "Thomas MÃ¸ller knows this polka from Greenland
H:where he has been working as an aircraft mechanic for several years."
H:I have also transcribed versions by Olivia (fiddle) and Lars (accordion) (last
H:names unknown) in D and A. Each is somewhat different, with its own
H:interesting variations. I include an arrangement I put together that tries
H:to keep the spirit of the tune while combining many of the most enjoyable variations.
H:It's really a Greenland polka; I keep it with Scandinavian tunes for convenience.
N:From NH Country Dance (URL below), along with many New England, Canadian & Swedish
N:tunes, and resources for abc notation and New England traditional music and dance.
%
N: Note #1: To preserve formatting (font, spacing, etc.), use the
N: file header at the URL below; just follow accompanying instructions.
%
N: Note #2: This abc code is optimized for use with abcm2ps, which is used by
N: EasyABC and other abc apps. To abc2svg for display or printing look to see if there
N: is a file optimized for abc2svg. If not you may need to adjust the spacing in places.
%
Z:abc-transcription Peter Yarensky. I rely heavily on careful listening to the
Z:named sources aided by software to hear details. While not perfect, known
Z:substantial differences from other written sources receive careful attention.
Z:abc-copyright Peter Yarensky. You may reproduce this tune freely but
Z:please include the entire abc file including all the notes.
%%writefields HQSD
U:s = !slide!
U:t = !trill!
F:Tunes Home Page - https://fiddle-tunes.nhcountrydance.com/
F:abc Header & its Usage - https://fiddle-tunes.nhcountrydance.com/header-page/
M:2/4
L:1/16
R:Scandinavian Polka
G:Scandinavian Tunes ~ GanglÃ¥ts, Marches & Polkas
N: Tune Tags ~ Polka, Scandinavian
K:Cmaj
%%textfont Palatino-Italic 14
%%text As played by Thomas M\/oller and Anders J. \/Orts
%%textfont Palatino-Roman 16
%%
G2 |\
"C" c4 B2>A2      | "C" G4 E2>G2  | "F" A4 "G7" B4 | "C" c4 G4     |\
"F" A2G2 "C" F2E2 | "G7" D4- D2GG | "G7" G2F2 E2F2 | "C" G4- G2G2  |
"C" c4 B2>A2      | "C" G4 E2>G2  | "F" A4 "G7" B4 | "C" c4 G4     |\
"F" A2G2 "C" F2E2 | "G7" D4- D2GG | "G7" G2F2 E2D2 | "C" C2 z2     ||
G2G2 |\
"C" E2GG G2G2     | "C" A2G2 G2G2 | "C" E2GG G2G2  | "C" A2G2 G2z2 |\
"C" C4 "G7" D4    | "C" E4 c4     | "G7" d4 B4     | "C" c4- c2 GG |
"C" E2GG G2G2     | "C" A2G2 G2G2 | "C" E2GG G2G2  | "C" A2G2 G2z2 |\
"C" C4 "G7" D4    | "C" E4 c4     | "G7" d4 B4     | "C" c4- c2    |]

